Obsidian-Amber/places/16/folder-documents.svg

<svg height="16" width="16" xmlns="http://www.w3.org/2000/svg" xmlns:xlink="http://www.w3.org/1999/xlink"><linearGradient id="a" gradientTransform="matrix(.89189031 0 0 .94046961 3.14398 5.346537)" gradientUnits="userSpaceOnUse" x1="11.350123" x2="11.350123" y1=".666966" y2="8.172179"><stop offset="0" stop-color="#fff"/><stop offset=".0097359" stop-color="#fff" stop-opacity=".235294"/><stop offset=".99001008" stop-color="#fff" stop-opacity=".156863"/><stop offset="1" stop-color="#fff" stop-opacity=".392157"/></linearGradient><linearGradient id="b" gradientTransform="matrix(.38156409 0 0 .32896952 -18.24159 .282167)" gradientUnits="userSpaceOnUse" x1="76.041" x2="76.041" y1="49.372032" y2="35.430561"><stop offset="0" stop-color="#0a0a0a" stop-opacity=".498"/><stop offset="1" stop-color="#0a0a0a" stop-opacity="0"/></linearGradient><linearGradient id="c" gradientTransform="matrix(.3101469 0 0 .30591044 -15.362929 .469432)" gradientUnits="userSpaceOnUse" x1="84.30883" x2="84.30883" y1="16.110577" y2="42.923553"><stop offset="0" stop-color="#e39517"/><stop offset="1" stop-color="#b76412"/></linearGradient><linearGradient id="d" gradientTransform="matrix(.31070043 0 0 .27489387 20.17717 -.103163)" gradientUnits="userSpaceOnUse" x1="-51.786404" x2="-51.786404" y1="53.514328" y2="2.061275"><stop offset="0" stop-opacity=".321739"/><stop offset="1" stop-opacity=".278261"/></linearGradient><linearGradient id="e" gradientTransform="matrix(.33333327 0 0 .32971018 -17.44063 -.647843)" gradientUnits="userSpaceOnUse" x1="62.988873" x2="62.988873" y1="11.645091" y2="15.385052"><stop offset="0" stop-color="#cecece"/><stop offset="1" stop-color="#c4c4c4"/></linearGradient><path d="m2.02332 1.976667v1h-1v4h14v-4h-7v-1z" fill="url(#e)"/><path d="m15.52332 4v-1.273333c0-.1385-.1115-.25-.25-.25h-6.75v-.71875c0-.1385-.1115-.25-.25-.25h-6.5c-.1385 0-.25.1115-.25.25v.71875h-.75c-.1385 0-.25.1115-.25.25v1.273333" fill="none" opacity=".8" stroke="url(#d)"/><path d="m1.0557148 5c.7046415 0 13.3978932.0283083 13.9442852.0283083 0 .5541558-.02651 8.9668427-.05806 8.9668427-4.894128.015945-12.5168954-.012542-13.94194-.012542 0-1.045855.0557334-6.830279.0557334-8.9826z" fill="url(#c)"/><path d="m.08698 3.976647c.8053 0 15.31189.0341 15.93634.0341 0 .67729-.0303 10.95971-.0663 10.95971-5.5933.02-14.30504-.0148-15.93366-.0148 0-1.2783.0636-8.34831.0636-10.97898z" fill="url(#b)" opacity=".4"/><path d="m1.57504 5.476667c.65431 0 12.44092.0251 12.94828.0251 0 .49259-.0246 7.97055-.0539 7.97055-4.54455.0142-11.62285-.0111-12.9461-.0111 0-.92965.0517-6.07138.0517-7.98455z" fill="none" opacity=".5" stroke="url(#a)" stroke-linecap="round"/><path d="m.55988 4.453367c.75732 0 14.39951.0316 14.98675.0316 0 .6186-.0285 10.00962-.0624 10.00962-5.26001.0178-13.45265-.014-14.98423-.014 0-1.16748.0599-7.62459.0599-10.02721z" fill="none" opacity=".3" stroke="#000" stroke-linecap="round" stroke-linejoin="round"/><path d="m5.470588 5.9853536c-.260706 0-.470588.2098824-.470588.4705883v6.0734701c0 .260706.209882.470588.470588.470588h5.058706c.260706 0 .470588-.209882.470588-.470588v-4.1911172c0-.2607059-1.959824-2.3529412-2.220529-2.3529412zm.765 1.0145294h1.764353v1.882353h1.999647v2.882176c0 .130352-.104941.235294-.235294.235294h-3.528706c-.130353 0-.235294-.104942-.235294-.235294v-4.5292348c0-.1303531.104941-.2352942.235294-.2352942z" fill="#8e5000"/></svg>

<?xml version="1.0" encoding="UTF-8" standalone="no"?>
<svg
   xmlns:dc="http://purl.org/dc/elements/1.1/"
   xmlns:cc="http://creativecommons.org/ns#"
   xmlns:rdf="http://www.w3.org/1999/02/22-rdf-syntax-ns#"
   xmlns:svg="http://www.w3.org/2000/svg"
   xmlns="http://www.w3.org/2000/svg"
   xmlns:xlink="http://www.w3.org/1999/xlink"
   xmlns:sodipodi="http://sodipodi.sourceforge.net/DTD/sodipodi-0.dtd"
   xmlns:inkscape="http://www.inkscape.org/namespaces/inkscape"
   width="16px"
   height="16px"
   id="svg8860"
   version="1.1"
   sodipodi:docname="folder-documents.svg"
   inkscape:version="0.92.2 2405546, 2018-03-11">
  <sodipodi:namedview
     pagecolor="#ffffff"
     bordercolor="#666666"
     borderopacity="1"
     objecttolerance="10"
     gridtolerance="10"
     guidetolerance="10"
     inkscape:pageopacity="0"
     inkscape:pageshadow="2"
     inkscape:window-width="1920"
     inkscape:window-height="1010"
     id="namedview50"
     showgrid="false"
     inkscape:zoom="14.75"
     inkscape:cx="-20.915254"
     inkscape:cy="8"
     inkscape:window-x="0"
     inkscape:window-y="32"
     inkscape:window-maximized="1"
     inkscape:current-layer="svg8860" />
  <defs
     id="defs8862">
    <linearGradient
       xlink:href="#linearGradient3454-2-5-0-3-8"
       id="linearGradient10270-0"
       gradientUnits="userSpaceOnUse"
       gradientTransform="matrix(0.89189031,0,0,0.94046961,3.14398,5.346537)"
       x1="11.350123"
       y1="0.66696572"
       x2="11.350123"
       y2="8.1721792" />
    <linearGradient
       id="linearGradient3454-2-5-0-3-8">
      <stop
         offset="0"
         style="stop-color:#ffffff;stop-opacity:1"
         id="stop3456-4-9-38-1-9" />
      <stop
         offset="0.0097359"
         style="stop-color:#ffffff;stop-opacity:0.23529412"
         id="stop3458-39-80-3-5-6" />
      <stop
         offset="0.99001008"
         style="stop-color:#ffffff;stop-opacity:0.15686275"
         id="stop3460-7-0-2-4-4" />
      <stop
         offset="1"
         style="stop-color:#ffffff;stop-opacity:0.39215687"
         id="stop3462-0-9-8-7-8" />
    </linearGradient>
    <linearGradient
       xlink:href="#linearGradient6129-963-697-142-998-580-273-44-2-2-2"
       id="linearGradient10268-4"
       gradientUnits="userSpaceOnUse"
       gradientTransform="matrix(0.38156409,0,0,0.32896952,-18.24159,0.28216731)"
       x1="76.041"
       y1="49.372032"
       x2="76.041"
       y2="35.430561" />
    <linearGradient
       id="linearGradient6129-963-697-142-998-580-273-44-2-2-2">
      <stop
         id="stop2661-01-6-2-4"
         style="stop-color:#0a0a0a;stop-opacity:0.498"
         offset="0" />
      <stop
         id="stop2663-64-5-5-3"
         style="stop-color:#0a0a0a;stop-opacity:0"
         offset="1" />
    </linearGradient>
    <linearGradient
       xlink:href="#linearGradient4291"
       id="linearGradient10262-3"
       gradientUnits="userSpaceOnUse"
       gradientTransform="matrix(0.3101469,0,0,0.30591044,-15.362929,0.46943178)"
       x1="84.30883"
       y1="16.110577"
       x2="84.30883"
       y2="42.923553" />
    <linearGradient
       id="linearGradient4632-0-6-4-4">
      <stop
         style="stop-color:#e39517;stop-opacity:1;"
         offset="0"
         id="stop4634-4-4-7-5" />
      <stop
         style="stop-color:#b76412;stop-opacity:1;"
         offset="1"
         id="stop4636-3-1-5-4" />
    </linearGradient>
    <linearGradient
       y2="2.0612748"
       x2="-51.786404"
       y1="53.514328"
       x1="-51.786404"
       gradientTransform="matrix(0.31070043,0,0,0.27489387,20.17717,-0.10316268)"
       gradientUnits="userSpaceOnUse"
       id="linearGradient10473-4-0"
       xlink:href="#linearGradient3104-8-8-97-4-6-11-5-5-4-4" />
    <linearGradient
       id="linearGradient3104-8-8-97-4-6-11-5-5-4-4">
      <stop
         offset="0"
         style="stop-color:#000000;stop-opacity:0.32173914"
         id="stop3106-5-4-3-5-0-2-1-0-7-7" />
      <stop
         offset="1"
         style="stop-color:#000000;stop-opacity:0.27826086"
         id="stop3108-4-3-7-8-2-0-7-9-0-6" />
    </linearGradient>
    <linearGradient
       id="linearGradient4346">
      <stop
         id="stop4348"
         style="stop-color:#cecece;stop-opacity:1"
         offset="0" />
      <stop
         id="stop4350"
         style="stop-color:#c4c4c4;stop-opacity:1"
         offset="1" />
    </linearGradient>
    <linearGradient
       y2="15.385052"
       x2="62.988873"
       y1="11.645091"
       x1="62.988873"
       gradientTransform="matrix(0.33333327,0,0,0.32971018,-17.44063,-0.64784268)"
       gradientUnits="userSpaceOnUse"
       id="linearGradient8858"
       xlink:href="#linearGradient4346" />
    <linearGradient
       y2="119.05979"
       x2="-91"
       y1="43.999817"
       x1="-91"
       gradientTransform="matrix(0.72580649,0,0,0.74516186,87.157262,-7.159588)"
       gradientUnits="userSpaceOnUse"
       id="linearGradient5883"
       xlink:href="#linearGradient4632-0-6-4" />
    <linearGradient
       id="linearGradient4632-0-6-4">
      <stop
         id="stop4634-4-4-7"
         offset="0"
         style="stop-color:#55a7f3;stop-opacity:1;" />
      <stop
         id="stop4636-3-1-5"
         offset="1"
         style="stop-color:#1374cf;stop-opacity:1;" />
    </linearGradient>
    <linearGradient
       y2="44.260689"
       x2="97.538795"
       y1="8.8103228"
       x1="97.538795"
       gradientTransform="matrix(1.9348846,0,0,1.9211429,-138.39876,-32.205592)"
       gradientUnits="userSpaceOnUse"
       id="linearGradient5873"
       xlink:href="#linearGradient9235" />
    <linearGradient
       id="linearGradient9235">
      <stop
         offset="0"
         style="stop-color:#ffffff;stop-opacity:1"
         id="stop9237" />
      <stop
         offset="0.1088333"
         style="stop-color:#ffffff;stop-opacity:0.23529412"
         id="stop9239" />
      <stop
         offset="0.97909725"
         style="stop-color:#ffffff;stop-opacity:0.15686275"
         id="stop9241" />
      <stop
         offset="1"
         style="stop-color:#ffffff;stop-opacity:0.39215687"
         id="stop9243" />
    </linearGradient>
    <linearGradient
       xlink:href="#linearGradient6129-963-697-142-998-580-273-44-2-2-2"
       id="linearGradient5887"
       gradientUnits="userSpaceOnUse"
       gradientTransform="matrix(2.2041262,0,0,1.9531236,-25.373612,-54.891428)"
       x1="22.934725"
       y1="49.629246"
       x2="22.934725"
       y2="36.599415" />
    <linearGradient
       xlink:href="#linearGradient4632-0-6-4-6"
       id="linearGradient5883-3"
       gradientUnits="userSpaceOnUse"
       gradientTransform="matrix(0.72580649,0,0,0.74516186,127.1654,-61.97781)"
       x1="-91"
       y1="43.999817"
       x2="-91"
       y2="119.05979" />
    <linearGradient
       id="linearGradient4632-0-6-4-6">
      <stop
         style="stop-color:#0fbb68;stop-opacity:1"
         offset="0"
         id="stop4634-4-4-7-7" />
      <stop
         style="stop-color:#0c7643;stop-opacity:1"
         offset="1"
         id="stop4636-3-1-5-5" />
    </linearGradient>
    <linearGradient
       xlink:href="#linearGradient4291"
       id="linearGradient10262-3-3"
       gradientUnits="userSpaceOnUse"
       gradientTransform="matrix(0.3101469,0,0,0.30591044,-36.718861,-6.8610766)"
       x1="84.30883"
       y1="16.110577"
       x2="84.30883"
       y2="42.923553" />
    <linearGradient
       id="linearGradient4291">
      <stop
         id="stop4293"
         offset="0"
         style="stop-color:#e39517;stop-opacity:1" />
      <stop
         id="stop4295"
         offset="1"
         style="stop-color:#b76412;stop-opacity:1" />
    </linearGradient>
  </defs>
  <metadata
     id="metadata8865">
    <rdf:RDF>
      <cc:Work
         rdf:about="">
        <dc:format>image/svg+xml</dc:format>
        <dc:type
           rdf:resource="http://purl.org/dc/dcmitype/StillImage" />
        <dc:title />
      </cc:Work>
    </rdf:RDF>
  </metadata>
  <g
     id="layer1">
    <path
       style="color:#000000;fill:url(#linearGradient8858);fill-opacity:1;fill-rule:nonzero;stroke:none;stroke-width:0.99992168;marker:none;visibility:visible;display:inline;overflow:visible;enable-background:accumulate"
       d="m 2.02332,1.976667 0,1 -1,0 0,4 14,0 0,-4 -7,0 0,-1 -6,0 z"
       id="rect4170-0" />
    <path
       style="color:#000000;display:inline;overflow:visible;visibility:visible;opacity:0.8;fill:none;stroke:url(#linearGradient10473-4-0);stroke-width:1;stroke-linecap:butt;stroke-linejoin:miter;stroke-miterlimit:4;stroke-dasharray:none;stroke-dashoffset:0;stroke-opacity:1;marker:none;enable-background:accumulate"
       d="M 15.52332,4 V 2.726667 c 0,-0.1385 -0.1115,-0.25 -0.25,-0.25 h -6.75 v -0.71875 c 0,-0.1385 -0.1115,-0.25 -0.25,-0.25 h -6.5 c -0.1385,0 -0.25,0.1115 -0.25,0.25 v 0.71875 h -0.75 c -0.1385,0 -0.25,0.1115 -0.25,0.25 V 4"
       id="rect4170" />
    <path
       d="M 1.0557148,5 C 1.7603563,5 14.453608,5.0283083 15,5.0283083 15,5.5824641 14.97349,13.995151 14.94194,13.995151 10.047812,14.011096 2.4250446,13.982609 1,13.982609 1,12.936754 1.0557334,7.15233 1.0557334,5.000009 z"
       id="rect3086"
       style="color:#000000;fill:url(#linearGradient10262-3);fill-opacity:1.0;fill-rule:nonzero;stroke:none;stroke-width:1;marker:none;visibility:visible;display:inline;overflow:visible;enable-background:accumulate" />
    <path
       d="m 0.08698,3.976647 c 0.8053,0 15.31189,0.0341 15.93634,0.0341 0,0.67729 -0.0303,10.95971 -0.0663,10.95971 -5.5933,0.02 -14.30504,-0.0148 -15.93366,-0.0148 0,-1.2783 0.0636,-8.34831 0.0636,-10.97898 z"
       id="rect3086-1"
       style="color:#000000;display:inline;overflow:visible;visibility:visible;opacity:0.4;fill:url(#linearGradient10268-4);fill-opacity:1;fill-rule:nonzero;stroke:none;stroke-width:1;marker:none;enable-background:accumulate"
       inkscape:connector-curvature="0" />
    <path
       d="m 1.57504,5.476667 c 0.65431,0 12.44092,0.0251 12.94828,0.0251 0,0.49259 -0.0246,7.97055 -0.0539,7.97055 -4.54455,0.0142 -11.62285,-0.0111 -12.9461,-0.0111 0,-0.92965 0.0517,-6.07138 0.0517,-7.98455 z"
       id="rect3086-9"
       style="opacity:0.5;color:#000000;fill:none;stroke:url(#linearGradient10270-0);stroke-width:1.00000012;stroke-linecap:round;stroke-linejoin:miter;stroke-miterlimit:4;stroke-opacity:1;stroke-dasharray:none;stroke-dashoffset:0;marker:none;visibility:visible;display:inline;overflow:visible;enable-background:accumulate" />
    <path
       d="m 0.55988,4.453367 c 0.75732,0 14.39951,0.0316 14.98675,0.0316 0,0.6186 -0.0285,10.00962 -0.0624,10.00962 -5.26001,0.0178 -13.45265,-0.014 -14.98423,-0.014 0,-1.16748 0.0599,-7.62459 0.0599,-10.02721 z"
       id="rect3086-0"
       style="opacity:0.3;color:#000000;fill:none;stroke:#000000;stroke-width:1;stroke-linecap:round;stroke-linejoin:round;stroke-miterlimit:4;stroke-opacity:1;stroke-dasharray:none;stroke-dashoffset:0;marker:none;visibility:visible;display:inline;overflow:visible;enable-background:accumulate" />
  </g>
  <path
     style="color:#bebebe;display:inline;overflow:visible;visibility:visible;fill:#8e5000;fill-opacity:1;fill-rule:nonzero;stroke:none;stroke-width:0.47058824;stroke-opacity:1;marker:none;enable-background:accumulate"
     d="M 5.470588,5.9853536 C 5.209882,5.9853536 5,6.195236 5,6.4559419 V 12.529412 C 5,12.790118 5.209882,13 5.470588,13 h 5.058706 C 10.79,13 10.999882,12.790118 10.999882,12.529412 V 8.3382948 c 0,-0.2607059 -1.959824,-2.3529412 -2.220529,-2.3529412 z m 0.765,1.0145294 h 1.764353 v 1.882353 h 1.999647 v 2.882176 c 0,0.130352 -0.104941,0.235294 -0.235294,0.235294 H 6.235588 c -0.130353,0 -0.235294,-0.104942 -0.235294,-0.235294 V 7.2351772 c 0,-0.1303531 0.104941,-0.2352942 0.235294,-0.2352942 z"
     id="rect21401-5-3"
     inkscape:connector-curvature="0"
     sodipodi:nodetypes="sssssssssscccssssss" />
</svg>
